X: 584
T: Going to the Well for Water
B: good tune book
B: tunes
M:12/8
R: slide
Q: 3/8=100
K:Dmajor
V:1 
A2f A2f A2f fed|Bgg Bgg Bgg gfe|
 cdc BcB Ace a2f|1 g2e cde d3 dcB:|2 g2e cde d3 d2e||
 |:f2f fed e2e edc|d2d dcB c2c cBA|
 GBB GBB FAA FAA|1 EDE e2d cBc d2e:|2 EDE e2d cBc d3||
% abcbook-tune_id 63dce3f1cf9340f11f79ab9d
% abcbook-tune_composer_id 
% abcbook-link-0 https://www.youtube.com/watch?v=Q8H-YPP2-aE
% abcbook-link-title-0 Going to the Well for Water
% abcbook-link-1 https://www.youtube.com/watch?v=ZpjrLb4zxOI
% abcbook-link-title-1 Caoimhín Ó Raghallaigh - Going To The Well For Water
% abcbook-link-start-at-1 25
% abcbook-boost 9
% abcbook-difficulty 0
% abcbook-tags good tune book
% abcbook-tablature 
% abcbook-transpose 
% abcbook-tuning 
% abcbook-lastupdated 1675433181331
% abcbook-soundfonts 
% abcbook-repeats 1


